;Generated with Cura_SteamEngine 15.01
; Default start code
G28 ; Home extruder
G1 Z15 F100
M107 ; Turn off fan
G90 ; Absolute positioning
M82 ; Extruder in absolute mode
M190 S65
; Activate all used extruder
M104 T0 S190
G92 E0 ; Reset extruder position
; Wait for all used extruders to reach temperature
M109 T0 S190
;Layer count: 50
;LAYER:0
M107
G0 F9000 X81.421 Y88.636 Z0.300
;TYPE:SKIRT
G1 F480 X90.848 Y88.568 E0.47033
G1 X105.477 Y88.457 E1.20019
G1 X109.049 Y88.431 E1.37840
G1 X109.629 Y88.426 E1.40734
G1 X110.241 Y88.422 E1.43788
G1 X110.751 Y88.418 E1.46332
G1 X115.751 Y88.383 E1.71278
G1 X115.891 Y107.139 E2.64854
G1 X115.927 Y111.387 E2.86049
G1 X111.427 Y111.414 E3.08500
G1 X110.847 Y111.419 E3.11393
G1 X110.203 Y111.423 E3.14606
G1 X109.313 Y111.430 E3.19047
G1 X108.338 Y111.437 E3.23911
G1 X81.777 Y111.635 E4.56428
G1 X85.180 Y105.028 E4.93506
G1 X85.199 Y104.989 E4.93722
G1 X85.344 Y104.688 E4.95389
G1 X85.583 Y104.168 E4.98244
G1 X85.591 Y104.148 E4.98352
G1 X85.733 Y103.816 E5.00153
G1 X85.918 Y103.348 E5.02664
G1 X86.005 Y103.110 E5.03928
G1 X86.086 Y102.875 E5.05168
G1 X86.229 Y102.414 E5.07576
G1 X86.331 Y102.035 E5.09535
G1 X86.427 Y101.601 E5.11752
G1 X86.486 Y101.271 E5.13425
G1 X86.513 Y101.072 E5.14426
G1 X86.533 Y100.905 E5.15266
G1 X86.549 Y100.736 E5.16113
G1 X86.569 Y100.412 E5.17732
G1 X86.574 Y100.131 E5.19134
G1 X86.573 Y100.108 E5.19249
G1 X86.560 Y99.750 E5.21036
G1 X86.520 Y99.294 E5.23320
G1 X86.470 Y98.951 E5.25049
G1 X86.400 Y98.579 E5.26938
G1 X86.315 Y98.220 E5.28778
G1 X86.195 Y97.792 E5.30996
G1 X86.059 Y97.371 E5.33203
G1 X85.872 Y96.868 E5.35881
G1 X85.673 Y96.387 E5.38478
G1 X85.402 Y95.790 E5.41748
G1 X85.117 Y95.214 E5.44955
G1 X84.752 Y94.528 E5.48831
G1 X81.421 Y88.636 E5.82599
G0 F9000 X82.104 Y89.031
G1 F480 X90.851 Y88.968 E6.26239
G1 X105.480 Y88.857 E6.99226
G1 X109.053 Y88.831 E7.17052
G1 X109.632 Y88.826 E7.19941
G1 X110.244 Y88.822 E7.22994
G1 X110.754 Y88.818 E7.25539
G1 X115.354 Y88.786 E7.48489
G1 X115.491 Y107.143 E8.40075
G1 X115.523 Y110.989 E8.59263
G1 X111.423 Y111.014 E8.79718
G1 X110.844 Y111.019 E8.82607
G1 X110.200 Y111.023 E8.85820
G1 X109.310 Y111.030 E8.90260
G1 X105.646 Y111.057 E9.08541
G1 X82.435 Y111.231 E10.24344
G1 X85.536 Y105.211 E10.58129
G1 X85.536 Y105.210 E10.58134
G1 X85.716 Y104.838 E10.60195
G1 X85.952 Y104.323 E10.63022
G1 X85.960 Y104.303 E10.63129
G1 X86.087 Y104.005 E10.64745
G1 X86.302 Y103.463 E10.67654
G1 X86.315 Y103.430 E10.67831
G1 X86.375 Y103.265 E10.68707
G1 X86.472 Y102.983 E10.70195
G1 X86.612 Y102.529 E10.72565
G1 X86.717 Y102.140 E10.74575
G1 X86.819 Y101.683 E10.76911
G1 X86.883 Y101.324 E10.78731
G1 X86.910 Y101.127 E10.79723
G1 X86.927 Y100.981 E10.80456
G1 X86.947 Y100.769 E10.81518
G1 X86.968 Y100.443 E10.83148
G1 X86.973 Y100.106 E10.84830
G1 X86.960 Y99.738 E10.86667
G1 X86.916 Y99.238 E10.89171
G1 X86.865 Y98.889 E10.90931
G1 X86.792 Y98.499 E10.92910
G1 X86.702 Y98.117 E10.94868
G1 X86.581 Y97.688 E10.97092
G1 X86.432 Y97.228 E10.99504
G1 X86.240 Y96.710 E11.02260
G1 X86.049 Y96.247 E11.04759
G1 X85.755 Y95.602 E11.08296
G1 X85.478 Y95.041 E11.11417
G1 X85.104 Y94.338 E11.15390
G1 X82.104 Y89.031 E11.45804
G0 F9000 X82.787 Y89.426
G1 F480 X90.854 Y89.368 E11.86051
G1 X105.483 Y89.257 E12.59038
G1 X109.056 Y89.231 E12.76864
G1 X109.635 Y89.226 E12.79753
G1 X110.247 Y89.222 E12.82806
G1 X110.757 Y89.218 E12.85351
G1 X114.957 Y89.189 E13.06305
G1 X115.091 Y107.146 E13.95895
G1 X115.120 Y110.592 E14.13088
G1 X111.420 Y110.614 E14.31548
G1 X110.841 Y110.619 E14.34437
G1 X110.197 Y110.623 E14.37650
G1 X109.307 Y110.630 E14.42090
G1 X105.643 Y110.657 E14.60370
G1 X83.093 Y110.826 E15.72876
G1 X85.891 Y105.395 E16.03356
G1 X85.896 Y105.384 E16.03416
G1 X86.076 Y105.012 E16.05478
G1 X86.323 Y104.472 E16.08440
G1 X86.329 Y104.458 E16.08516
G1 X86.466 Y104.136 E16.10262
G1 X86.674 Y103.611 E16.13079
G1 X86.759 Y103.377 E16.14321
G1 X86.852 Y103.107 E16.15746
G1 X86.998 Y102.637 E16.18202
G1 X87.106 Y102.235 E16.20278
G1 X87.212 Y101.759 E16.22711
G1 X87.276 Y101.400 E16.24530
G1 X87.306 Y101.183 E16.25623
G1 X87.332 Y100.959 E16.26748
G1 X87.344 Y100.831 E16.27390
G1 X87.368 Y100.453 E16.29279
G1 X87.373 Y100.100 E16.31041
G1 X87.373 Y100.076 E16.31161
G1 X87.360 Y99.725 E16.32913
G1 X87.312 Y99.181 E16.35637
G1 X87.261 Y98.831 E16.37402
G1 X87.183 Y98.415 E16.39514
G1 X87.088 Y98.013 E16.41574
G1 X86.962 Y97.566 E16.43891
G1 X86.814 Y97.107 E16.46298
G1 X86.617 Y96.576 E16.49123
G1 X86.401 Y96.055 E16.51937
G1 X86.127 Y95.451 E16.55246
G1 X85.832 Y94.855 E16.58564
G1 X85.464 Y94.164 E16.62469
G1 X82.787 Y89.426 E16.89620
G1 F2400 E12.89620
G0 F9000 X89.559 Y93.820
;TYPE:WALL-INNER
G1 F2400 E16.89620
G1 F480 X89.242 Y93.180 E16.93183
G1 X111.185 Y93.015 E18.02660
G1 X111.289 Y106.815 E18.71510
G1 X110.168 Y106.823 E18.77103
G1 X89.346 Y106.979 E19.80987
G1 X89.793 Y106.023 E19.86253
G1 X90.225 Y104.966 E19.91949
G1 X90.452 Y104.327 E19.95333
G1 X90.627 Y103.764 E19.98274
G1 X90.789 Y103.170 E20.01346
G1 X90.804 Y103.116 E20.01625
G1 X90.928 Y102.552 E20.04506
G1 X91.032 Y101.980 E20.07407
G1 X91.108 Y101.387 E20.10389
G1 X91.165 Y100.611 E20.14271
G1 X91.174 Y100.109 E20.16776
G1 X91.154 Y99.482 E20.19906
G1 X91.089 Y98.749 E20.23577
G1 X91.009 Y98.195 E20.26370
G1 X90.903 Y97.633 E20.29223
G1 X90.767 Y97.059 E20.32166
G1 X90.602 Y96.470 E20.35218
G1 X90.404 Y95.858 E20.38427
G1 X90.154 Y95.184 E20.42013
G1 X89.895 Y94.560 E20.45384
G1 X89.559 Y93.820 E20.49439
G0 F9000 X89.198 Y93.991
;TYPE:WALL-OUTER
G1 F480 X88.855 Y93.299 E20.53292
G1 X88.581 Y92.785 E20.56198
G1 X111.582 Y92.612 E21.70954
G1 X111.692 Y107.212 E22.43795
G1 X88.691 Y107.384 E23.58551
G1 X88.956 Y106.866 E23.61454
G1 X89.428 Y105.860 E23.66998
G1 X89.851 Y104.823 E23.72585
G1 X90.073 Y104.200 E23.75885
G1 X90.246 Y103.643 E23.78795
G1 X90.415 Y103.022 E23.82005
G1 X90.424 Y102.979 E23.82225
G1 X90.537 Y102.467 E23.84841
G1 X90.637 Y101.919 E23.87620
G1 X90.710 Y101.345 E23.90506
G1 X90.766 Y100.593 E23.94269
G1 X90.774 Y100.108 E23.96689
G1 X90.755 Y99.507 E23.99688
G1 X90.692 Y98.796 E24.03250
G1 X90.614 Y98.261 E24.05947
G1 X90.512 Y97.716 E24.08713
G1 X90.380 Y97.159 E24.11569
G1 X90.219 Y96.585 E24.14543
G1 X90.026 Y95.989 E24.17669
G1 X89.781 Y95.330 E24.21176
G1 X89.528 Y94.719 E24.24476
G1 X89.198 Y93.991 E24.28463
G0 F9000 X89.825 Y94.067
;TYPE:SKIN
G1 F480 X102.497 Y106.740 E25.17875
G0 F9000 X101.936 Y106.744
G1 F480 X90.255 Y95.063 E26.00290
G0 F9000 X90.583 Y95.957
G1 F480 X101.375 Y106.749 E26.76434
G0 F9000 X100.813 Y106.753
G1 F480 X90.832 Y96.772 E27.46855
G0 F9000 X91.022 Y97.527
G1 F480 X100.252 Y106.757 E28.11978
G0 F9000 X103.059 Y106.736
G1 F480 X89.640 Y93.317 E29.06656
G0 F9000 X90.202 Y93.313
G1 F480 X103.620 Y106.732 E30.01331
G0 F9000 X104.182 Y106.727
G1 F480 X90.763 Y93.309 E30.96006
G0 F9000 X91.324 Y93.304
G1 F480 X104.743 Y106.723 E31.90684
G0 F9000 X105.305 Y106.719
G1 F480 X91.886 Y93.300 E32.85362
G0 F9000 X92.447 Y93.296
G1 F480 X105.866 Y106.715 E33.80040
G0 F9000 X106.428 Y106.710
G1 F480 X93.009 Y93.292 E34.74715
G0 F9000 X93.570 Y93.287
G1 F480 X106.989 Y106.706 E35.69394
G0 F9000 X107.550 Y106.702
G1 F480 X94.132 Y93.283 E36.64068
G0 F9000 X94.693 Y93.279
G1 F480 X108.113 Y106.698 E37.58750
G0 F9000 X108.674 Y106.694
G1 F480 X95.255 Y93.275 E38.53428
G0 F9000 X95.816 Y93.270
G1 F480 X109.235 Y106.690 E39.48110
G0 F9000 X109.797 Y106.686
G1 F480 X96.377 Y93.266 E40.42796
G0 F9000 X96.939 Y93.262
G1 F480 X110.358 Y106.681 E41.37474
G0 F9000 X110.920 Y106.677
G1 F480 X97.500 Y93.258 E42.32156
G0 F9000 X98.062 Y93.253
G1 F480 X111.144 Y106.336 E43.24460
G0 F9000 X111.140 Y105.766
G1 F480 X98.623 Y93.249 E44.12774
G0 F9000 X99.185 Y93.245
G1 F480 X111.135 Y105.196 E44.97091
G0 F9000 X111.131 Y104.626
G1 F480 X99.746 Y93.241 E45.77419
G0 F9000 X91.155 Y98.226
G1 F480 X99.690 Y106.761 E46.37638
G0 F9000 X99.128 Y106.765
G1 F480 X91.240 Y98.877 E46.93292
G0 F9000 X91.294 Y99.496
G1 F480 X98.567 Y106.769 E47.44607
G0 F9000 X98.005 Y106.773
G1 F480 X91.312 Y100.081 E47.91826
G0 F9000 X91.303 Y100.636
G1 F480 X97.444 Y106.778 E48.35157
G0 F9000 X96.882 Y106.782
G1 F480 X91.264 Y101.163 E48.74799
G0 F9000 X91.211 Y101.676
G1 F480 X96.321 Y106.786 E49.10853
G0 F9000 X95.759 Y106.790
G1 F480 X91.138 Y102.169 E49.43456
G0 F9000 X91.049 Y102.646
G1 F480 X95.198 Y106.795 E49.72730
G0 F9000 X94.637 Y106.799
G1 F480 X90.947 Y103.109 E49.98765
G0 F9000 X90.827 Y103.555
G1 F480 X94.075 Y106.803 E50.21681
G0 F9000 X93.514 Y106.807
G1 F480 X90.701 Y103.994 E50.41528
G0 F9000 X90.565 Y104.424
G1 F480 X92.952 Y106.812 E50.58374
G0 F9000 X92.391 Y106.816
G1 F480 X90.417 Y104.842 E50.72301
G0 F9000 X90.258 Y105.249
G1 F480 X91.829 Y106.820 E50.83385
G0 F9000 X91.268 Y106.824
G1 F480 X90.094 Y105.650 E50.91669
G0 F9000 X89.930 Y106.052
G1 F480 X90.706 Y106.828 E50.97144
G0 F9000 X90.144 Y106.832
G1 F480 X89.751 Y106.439 E50.99917
G0 F9000 X100.308 Y93.236
G1 F480 X111.127 Y104.056 E51.76254
G0 F9000 X111.123 Y103.486
G1 F480 X100.869 Y93.232 E52.48601
G0 F9000 X101.431 Y93.229
G1 F480 X111.119 Y102.916 E53.16952
G0 F9000 X111.114 Y102.346
G1 F480 X101.993 Y93.224 E53.81309
G0 F9000 X102.554 Y93.220
G1 F480 X111.110 Y101.776 E54.41676
G0 F9000 X111.106 Y101.206
G1 F480 X103.115 Y93.216 E54.98054
G0 F9000 X103.677 Y93.212
G1 F480 X111.102 Y100.636 E55.50437
G0 F9000 X111.097 Y100.066
G1 F480 X104.238 Y93.207 E55.98831
G0 F9000 X104.800 Y93.203
G1 F480 X111.093 Y99.496 E56.43232
G0 F9000 X111.089 Y98.927
G1 F480 X105.361 Y93.199 E56.83646
G0 F9000 X105.923 Y93.195
G1 F480 X111.085 Y98.357 E57.20067
G0 F9000 X111.080 Y97.787
G1 F480 X106.484 Y93.191 E57.52494
G0 F9000 X107.046 Y93.186
G1 F480 X111.076 Y97.217 E57.80931
G0 F9000 X111.072 Y96.647
G1 F480 X107.607 Y93.182 E58.05379
G0 F9000 X108.168 Y93.178
G1 F480 X111.068 Y96.077 E58.25836
G0 F9000 X111.063 Y95.507
G1 F480 X108.730 Y93.174 E58.42297
G0 F9000 X109.291 Y93.169
G1 F480 X111.059 Y94.937 E58.54771
G0 F9000 X111.055 Y94.367
G1 F480 X109.853 Y93.165 E58.63252
G0 F9000 X110.414 Y93.161
G1 F480 X111.051 Y93.797 E58.67743
G0 F9000 X111.046 Y93.227
G1 F480 X110.976 Y93.157 E58.68237
;LAYER:1
M106 S127
G0 F9000 X111.185 Y93.016 Z0.500
;TYPE:WALL-INNER
G1 F540 X111.289 Y106.815 E59.14134
G1 X89.493 Y106.978 E59.86629
G1 X89.997 Y105.908 E59.90563
G1 X90.402 Y104.919 E59.94118
G1 X90.644 Y104.244 E59.96503
G1 X90.815 Y103.696 E59.98412
G1 X90.987 Y103.062 E60.00597
G1 X91.111 Y102.504 E60.02498
G1 X91.213 Y101.940 E60.04405
G1 X91.288 Y101.360 E60.06350
G1 X91.344 Y100.601 E60.08881
G1 X91.353 Y100.103 E60.10538
G1 X91.337 Y99.574 E60.12298
G1 X91.298 Y99.042 E60.14072
G1 X91.234 Y98.503 E60.15877
G1 X91.135 Y97.917 E60.17854
G1 X91.015 Y97.359 E60.19752
G1 X90.865 Y96.790 E60.21710
G1 X90.685 Y96.201 E60.23758
G1 X90.473 Y95.592 E60.25903
G1 X90.222 Y94.955 E60.28180
G1 X89.953 Y94.337 E60.30422
G1 X89.616 Y93.624 E60.33045
G1 X89.391 Y93.180 E60.34700
G1 X111.185 Y93.016 E61.07190
G0 F9000 X111.582 Y92.613
;TYPE:WALL-OUTER
G1 F540 X111.692 Y107.212 E61.55747
G1 X88.834 Y107.383 E62.31775
G1 X89.129 Y106.812 E62.33913
G1 X89.350 Y106.361 E62.35584
G1 X89.632 Y105.743 E62.37843
G1 X90.032 Y104.768 E62.41348
G1 X90.265 Y104.117 E62.43648
G1 X90.434 Y103.573 E62.45542
G1 X90.599 Y102.965 E62.47638
G1 X90.720 Y102.419 E62.49498
G1 X90.818 Y101.881 E62.51317
G1 X90.890 Y101.318 E62.53205
G1 X90.945 Y100.583 E62.55656
G1 X90.953 Y100.106 E62.57243
G1 X90.938 Y99.595 E62.58943
G1 X90.900 Y99.080 E62.60661
G1 X90.838 Y98.560 E62.62402
G1 X90.742 Y97.992 E62.64318
G1 X90.626 Y97.452 E62.66155
G1 X90.480 Y96.899 E62.68058
G1 X90.305 Y96.326 E62.70050
G1 X90.098 Y95.731 E62.72146
G1 X89.853 Y95.108 E62.74372
G1 X89.587 Y94.500 E62.76580
G1 X89.257 Y93.800 E62.79154
G1 X88.727 Y92.784 E62.82965
G1 X111.582 Y92.613 E63.58983
G0 F9000 X110.771 Y93.158
;TYPE:SKIN
G1 F1020 X97.148 Y106.780 E64.23059
G0 F9000 X97.718 Y106.776
G1 F1020 X111.048 Y93.446 E64.85759
G0 F9000 X111.052 Y94.008
G1 F1020 X98.288 Y106.772 E65.45797
G0 F9000 X98.858 Y106.768
G1 F1020 X111.056 Y94.569 E66.03175
G0 F9000 X111.061 Y95.131
G1 F1020 X99.428 Y106.763 E66.57891
G0 F9000 X99.998 Y106.759
G1 F1020 X111.065 Y95.692 E67.09947
G0 F9000 X111.069 Y96.254
G1 F1020 X100.568 Y106.755 E67.59340
G0 F9000 X101.138 Y106.751
G1 F1020 X111.073 Y96.815 E68.06074
G0 F9000 X111.077 Y97.377
G1 F1020 X101.708 Y106.746 E68.50143
G0 F9000 X102.278 Y106.742
G1 F1020 X111.081 Y97.939 E68.91549
G0 F9000 X111.085 Y98.500
G1 F1020 X102.847 Y106.738 E69.30298
G0 F9000 X103.417 Y106.734
G1 F1020 X111.090 Y99.062 E69.66387
G0 F9000 X111.094 Y99.623
G1 F1020 X103.987 Y106.729 E69.99814
G0 F9000 X104.557 Y106.725
G1 F1020 X111.098 Y100.185 E70.30579
G0 F9000 X111.102 Y100.746
G1 F1020 X105.127 Y106.721 E70.58683
G0 F9000 X105.697 Y106.717
G1 F1020 X111.106 Y101.307 E70.84128
G0 F9000 X111.110 Y101.870
G1 F1020 X106.267 Y106.713 E71.06908
G0 F9000 X106.837 Y106.708
G1 F1020 X111.114 Y102.431 E71.27026
G0 F9000 X111.119 Y102.992
G1 F1020 X107.407 Y106.704 E71.44486
G0 F9000 X107.977 Y106.700
G1 F1020 X111.123 Y103.554 E71.59284
G0 F9000 X111.127 Y104.115
G1 F1020 X108.547 Y106.696 E71.71421
G0 F9000 X109.117 Y106.691
G1 F1020 X111.131 Y104.677 E71.80895
G0 F9000 X111.135 Y105.238
G1 F1020 X109.687 Y106.687 E71.87708
G0 F9000 X110.257 Y106.683
G1 F1020 X111.139 Y105.800 E71.91859
G0 F9000 X111.143 Y106.362
G1 F1020 X110.826 Y106.679 E71.93350
G0 F9000 X110.200 Y93.163
G1 F1020 X96.578 Y106.785 E72.57424
G0 F9000 X96.008 Y106.789
G1 F1020 X109.630 Y93.167 E73.21498
G0 F9000 X109.060 Y93.171
G1 F1020 X95.438 Y106.793 E73.85571
G0 F9000 X94.868 Y106.797
G1 F1020 X108.490 Y93.176 E74.49643
G0 F9000 X107.920 Y93.180
G1 F1020 X94.299 Y106.802 E75.13714
G0 F9000 X93.729 Y106.806
G1 F1020 X107.350 Y93.184 E75.77785
G0 F9000 X106.780 Y93.188
G1 F1020 X93.159 Y106.810 E76.41857
G0 F9000 X92.589 Y106.814
G1 F1020 X106.210 Y93.193 E77.05926
G0 F9000 X105.641 Y93.197
G1 F1020 X92.019 Y106.819 E77.69999
G0 F9000 X91.449 Y106.823
G1 F1020 X105.071 Y93.201 E78.34073
G0 F9000 X104.501 Y93.205
G1 F1020 X90.879 Y106.827 E78.98147
G0 F9000 X90.309 Y106.831
G1 F1020 X103.931 Y93.210 E79.62218
G0 F9000 X103.361 Y93.214
G1 F1020 X89.739 Y106.836 E80.26292
G0 F9000 X90.179 Y105.830
G1 F1020 X102.791 Y93.218 E80.85615
G0 F9000 X102.221 Y93.222
G1 F1020 X90.565 Y104.878 E81.40441
G0 F9000 X90.862 Y104.016
G1 F1020 X101.651 Y93.227 E81.91189
G0 F9000 X101.080 Y93.232
G1 F1020 X91.088 Y103.224 E82.38189
G0 F9000 X91.254 Y102.492
G1 F1020 X100.510 Y93.236 E82.81726
G0 F9000 X99.941 Y93.240
G1 F1020 X91.370 Y101.810 E83.22039
G0 F9000 X91.441 Y101.174
G1 F1020 X99.371 Y93.244 E83.59339
G0 F9000 X98.801 Y93.248
G1 F1020 X91.485 Y100.564 E83.93751
G0 F9000 X91.490 Y99.994
G1 F1020 X98.231 Y93.253 E84.25459
G0 F9000 X97.661 Y93.257
G1 F1020 X91.469 Y99.449 E84.54584
G0 F9000 X91.426 Y98.927
G1 F1020 X97.091 Y93.261 E84.81233
G0 F9000 X96.521 Y93.265
G1 F1020 X91.363 Y98.424 E85.05497
G0 F9000 X91.280 Y97.941
G1 F1020 X95.951 Y93.270 E85.27468
G0 F9000 X95.381 Y93.274
G1 F1020 X91.182 Y97.473 E85.47219
G0 F9000 X91.071 Y97.019
G1 F1020 X94.811 Y93.278 E85.64813
G0 F9000 X94.241 Y93.282
G1 F1020 X90.947 Y96.577 E85.80309
G0 F9000 X90.813 Y96.145
G1 F1020 X93.671 Y93.287 E85.93752
G0 F9000 X93.101 Y93.291
G1 F1020 X90.668 Y95.724 E86.05197
G0 F9000 X90.514 Y95.313
G1 F1020 X92.531 Y93.295 E86.14686
G0 F9000 X91.961 Y93.300
G1 F1020 X90.354 Y94.907 E86.22245
G0 F9000 X90.182 Y94.513
G1 F1020 X91.391 Y93.304 E86.27932
G0 F9000 X90.821 Y93.309
