;Generated with Cura_SteamEngine 15.01
; Default start code
G28 ; Home extruder
G1 Z15 F100
M107 ; Turn off fan
G90 ; Absolute positioning
M82 ; Extruder in absolute mode
M190 S65
; Activate all used extruder
M104 T0 S200
G92 E0 ; Reset extruder position
; Wait for all used extruders to reach temperature
M109 T0 S200
;Layer count: 40
;LAYER:0
M107
G0 F9000 X79.930 Y70.017 Z0.300
;TYPE:SKIRT
G1 F480 X81.119 Y68.846 E0.08326
G1 X82.695 Y67.288 E0.19382
G1 X86.536 Y67.194 E0.38551
G1 X98.288 Y66.902 E0.97200
G1 X98.494 Y75.144 E1.38332
G1 X99.175 Y75.090 E1.41740
G1 X99.175 Y75.089 E1.41745
G1 X99.465 Y75.063 E1.43198
G1 X100.493 Y75.091 E1.48328
G1 X100.289 Y66.851 E1.89450
G1 X106.536 Y66.698 E2.20626
G1 X115.859 Y66.465 E2.67153
G1 X117.526 Y67.934 E2.78239
G1 X118.457 Y68.764 E2.84461
G1 X118.456 Y68.765 E2.84468
G1 X118.775 Y69.046 E2.86589
G1 X119.544 Y69.940 E2.92472
G1 X120.196 Y70.695 E2.97449
G1 X120.584 Y71.151 E3.00436
G1 X121.201 Y72.277 E3.06842
G1 X121.710 Y73.212 E3.12153
G1 X121.950 Y74.403 E3.18215
G1 X122.172 Y75.507 E3.23833
G1 X121.823 Y77.824 E3.35523
G1 X120.800 Y79.941 E3.47253
G1 X120.049 Y80.905 E3.53349
G1 X126.256 Y91.064 E4.12744
G1 X126.873 Y90.947 E4.15877
G1 X127.463 Y90.838 E4.18871
G1 X128.747 Y90.867 E4.25278
G1 X129.808 Y90.893 E4.30573
G1 X130.964 Y91.281 E4.36657
G1 X132.030 Y91.641 E4.42270
G1 X133.861 Y93.098 E4.53944
G1 X135.185 Y95.046 E4.65695
G1 X135.784 Y96.521 E4.73638
G1 X136.225 Y97.607 E4.79485
G1 X136.643 Y99.214 E4.87770
G1 X137.204 Y101.364 E4.98855
G1 X133.882 Y107.461 E5.33495
G1 X129.744 Y115.063 E5.76676
G1 X122.504 Y111.119 E6.17809
G1 X122.072 Y112.022 E6.22803
G1 X121.548 Y112.875 E6.27797
G1 X128.786 Y116.817 E6.68916
G1 X124.647 Y124.418 E7.12095
G1 X121.336 Y130.495 E7.46622
G1 X119.234 Y131.204 E7.57689
G1 X118.036 Y131.601 E7.63985
G1 X117.625 Y131.733 E7.66139
G1 X116.485 Y131.950 E7.71929
G1 X115.506 Y132.136 E7.76900
G1 X114.916 Y132.245 E7.79894
G1 X113.632 Y132.216 E7.86301
G1 X112.571 Y132.190 E7.91596
G1 X111.415 Y131.802 E7.97680
G1 X110.348 Y131.442 E8.03298
G1 X108.517 Y129.982 E8.14981
G1 X107.195 Y128.038 E8.26710
G1 X106.734 Y126.906 E8.32808
G1 X95.221 Y127.191 E8.90264
G1 X94.834 Y127.201 E8.92195
G1 X94.626 Y127.794 E8.95331
G1 X94.428 Y128.357 E8.98308
G1 X93.760 Y129.456 E9.04724
G1 X93.205 Y130.365 E9.10038
G1 X92.294 Y131.167 E9.16093
G1 X91.450 Y131.912 E9.21710
G1 X89.267 Y132.770 E9.33412
G1 X86.922 Y132.942 E9.45142
G1 X85.346 Y132.724 E9.53080
G1 X84.184 Y132.563 E9.58933
G1 X82.579 Y132.120 E9.67239
G1 X82.579 Y132.119 E9.67244
G1 X80.440 Y131.533 E9.78309
G1 X75.567 Y123.555 E10.24949
G1 X72.308 Y118.221 E10.56134
G1 X79.342 Y113.924 E10.97257
G1 X78.942 Y113.340 E11.00789
G1 X78.941 Y113.340 E11.00794
G1 X78.781 Y113.110 E11.02192
G1 X78.298 Y112.217 E11.07257
G1 X71.267 Y116.513 E11.48364
G1 X65.135 Y106.481 E12.07023
G1 X63.148 Y103.225 E12.26053
G1 X63.583 Y101.050 E12.37119
G1 X63.839 Y99.809 E12.43441
G1 X63.930 Y99.390 E12.45580
G1 X64.310 Y98.298 E12.51349
G1 X64.643 Y97.346 E12.56380
G1 X64.844 Y96.784 E12.59358
G1 X65.504 Y95.697 E12.65703
G1 X66.058 Y94.786 E12.71022
G1 X66.976 Y93.977 E12.77127
G1 X67.819 Y93.236 E12.82726
G1 X70.000 Y92.378 E12.94419
G1 X72.347 Y92.207 E13.06159
G1 X73.555 Y92.374 E13.12243
G1 X79.250 Y81.919 E13.71640
G1 X78.839 Y81.443 E13.74777
G1 X78.450 Y80.987 E13.77768
G1 X77.834 Y79.862 E13.84167
G1 X77.325 Y78.928 E13.89473
G1 X77.084 Y77.734 E13.95550
G1 X76.862 Y76.629 E14.01173
G1 X77.211 Y74.314 E14.12854
G1 X78.234 Y72.197 E14.24584
G1 X79.209 Y70.944 E14.32505
G1 X79.930 Y70.017 E14.38364
G0 F9000 X80.229 Y70.283
G1 F480 X81.400 Y69.131 E14.46559
G1 X82.863 Y67.684 E14.56825
G1 X86.546 Y67.594 E14.75205
G1 X97.898 Y67.312 E15.31858
G1 X98.104 Y75.575 E15.73095
G1 X99.252 Y75.484 E15.78840
G1 X99.477 Y75.464 E15.79967
G1 X100.904 Y75.503 E15.87089
G1 X100.699 Y67.241 E16.28321
G1 X106.546 Y67.098 E16.57501
G1 X115.712 Y66.869 E17.03244
G1 X117.260 Y68.233 E17.13538
G1 X118.184 Y69.057 E17.19714
G1 X118.489 Y69.328 E17.21750
G1 X119.238 Y70.197 E17.27473
G1 X119.892 Y70.955 E17.32468
G1 X120.253 Y71.379 E17.35246
G1 X120.850 Y72.468 E17.41442
G1 X121.329 Y73.350 E17.46450
G1 X121.558 Y74.482 E17.52212
G1 X121.766 Y75.517 E17.57478
G1 X121.437 Y77.704 E17.68512
G1 X120.458 Y79.729 E17.79734
G1 X119.564 Y80.877 E17.86993
G1 X126.060 Y91.509 E18.49153
G1 X126.947 Y91.340 E18.53658
G1 X127.495 Y91.238 E18.56439
G1 X128.738 Y91.267 E18.62642
G1 X129.738 Y91.291 E18.67633
G1 X130.836 Y91.660 E18.73412
G1 X131.835 Y91.998 E18.78673
G1 X133.564 Y93.373 E18.89694
G1 X134.831 Y95.235 E19.00931
G1 X135.414 Y96.671 E19.08663
G1 X135.845 Y97.733 E19.14381
G1 X136.256 Y99.315 E19.22535
G1 X136.777 Y101.312 E19.32832
G1 X133.531 Y107.270 E19.66682
G1 X129.584 Y114.520 E20.07865
G1 X122.326 Y110.566 E20.49100
G1 X121.721 Y111.830 E20.56091
G1 X120.986 Y113.025 E20.63091
G1 X128.243 Y116.977 E21.04316
G1 X124.295 Y124.227 E21.45502
G1 X121.059 Y130.166 E21.79245
G1 X119.107 Y130.824 E21.89522
G1 X117.912 Y131.221 E21.95804
G1 X117.526 Y131.345 E21.97827
G1 X116.411 Y131.557 E22.03489
G1 X116.411 Y131.556 E22.03494
G1 X115.432 Y131.743 E22.08467
G1 X114.884 Y131.845 E22.11247
G1 X113.641 Y131.816 E22.17451
G1 X112.641 Y131.792 E22.22441
G1 X111.543 Y131.423 E22.28220
G1 X110.542 Y131.085 E22.33491
G1 X108.814 Y129.707 E22.44518
G1 X107.550 Y127.848 E22.55733
G1 X107.001 Y126.499 E22.62999
G1 X95.211 Y126.791 E23.21838
G1 X94.548 Y126.808 E23.25147
G1 X94.249 Y127.661 E23.29656
G1 X94.064 Y128.184 E23.32424
G1 X93.419 Y129.248 E23.38631
G1 X92.895 Y130.105 E23.43643
G1 X92.030 Y130.867 E23.49394
G1 X91.238 Y131.566 E23.54664
G1 X89.178 Y132.375 E23.65706
G1 X86.935 Y132.540 E23.76926
G1 X85.401 Y132.328 E23.84652
G1 X84.266 Y132.170 E23.90369
G1 X82.691 Y131.735 E23.98521
G1 X82.691 Y131.736 E23.98526
G1 X80.698 Y131.189 E24.08837
G1 X75.909 Y123.347 E24.54679
G1 X72.858 Y118.354 E24.83872
G1 X79.910 Y114.046 E25.25100
G1 X79.255 Y113.091 E25.30878
G1 X79.122 Y112.900 E25.32039
G1 X78.450 Y111.657 E25.39088
G1 X71.399 Y115.964 E25.80309
G1 X65.477 Y106.273 E26.36971
G1 X63.571 Y103.150 E26.55224
G1 X63.975 Y101.130 E26.65501
G1 X64.231 Y99.892 E26.71808
G1 X64.316 Y99.499 E26.73814
G1 X64.688 Y98.430 E26.79461
G1 X65.020 Y97.480 E26.84482
G1 X65.207 Y96.957 E26.87253
G1 X65.846 Y95.904 E26.93398
G1 X66.368 Y95.046 E26.98409
G1 X67.241 Y94.278 E27.04210
G1 X68.030 Y93.583 E27.09455
G1 X70.090 Y92.772 E27.20500
G1 X72.334 Y92.609 E27.31725
G1 X73.774 Y92.808 E27.38978
G1 X79.733 Y81.867 E28.01134
G1 X79.143 Y81.183 E28.05640
G1 X78.781 Y80.759 E28.08422
G1 X78.185 Y79.670 E28.14615
G1 X77.705 Y78.790 E28.19616
G1 X77.476 Y77.655 E28.25393
G1 X77.268 Y76.619 E28.30665
G1 X77.597 Y74.434 E28.41688
G1 X78.576 Y72.409 E28.52910
G1 X79.527 Y71.187 E28.60635
G1 X80.229 Y70.283 E28.66345
G0 F9000 X80.529 Y70.550
G1 F480 X81.681 Y69.416 E28.74410
G1 X83.032 Y68.080 E28.83889
G1 X86.556 Y67.994 E29.01476
G1 X97.508 Y67.722 E29.56133
G1 X97.715 Y76.008 E29.97484
G1 X99.253 Y75.885 E30.05182
G1 X99.490 Y75.864 E30.06369
G1 X101.314 Y75.914 E30.15472
G1 X101.109 Y67.631 E30.56809
G1 X106.556 Y67.498 E30.83992
G1 X115.566 Y67.273 E31.28958
G1 X116.995 Y68.533 E31.38462
G1 X117.919 Y69.356 E31.44636
G1 X118.204 Y69.609 E31.46537
G1 X118.935 Y70.458 E31.52126
G1 X119.589 Y71.215 E31.57117
G1 X119.922 Y71.608 E31.59687
G1 X120.499 Y72.660 E31.65673
G1 X120.949 Y73.489 E31.70379
G1 X121.166 Y74.561 E31.75836
G1 X121.360 Y75.527 E31.80752
G1 X121.050 Y77.585 E31.91135
G1 X120.117 Y79.517 E32.01839
G1 X119.191 Y80.706 E32.09357
G1 X119.079 Y80.850 E32.10268
G1 X125.862 Y91.953 E32.75180
G1 X126.042 Y91.919 E32.76094
G1 X126.042 Y91.920 E32.76099
G1 X127.021 Y91.733 E32.81071
G1 X127.527 Y91.639 E32.83639
G1 X128.729 Y91.667 E32.89637
G1 X129.668 Y91.690 E32.94323
G1 X130.709 Y92.039 E32.99801
G1 X131.641 Y92.354 E33.04709
G1 X133.268 Y93.649 E33.15084
G1 X134.476 Y95.425 E33.25799
G1 X135.043 Y96.821 E33.33317
G1 X135.464 Y97.859 E33.38905
G1 X135.869 Y99.416 E33.46931
G1 X136.350 Y101.259 E33.56434
G1 X133.180 Y107.078 E33.89494
G1 X129.424 Y113.977 E34.28683
G1 X122.148 Y110.014 E34.70018
G1 X121.369 Y111.639 E34.79009
G1 X120.425 Y113.175 E34.88004
G1 X127.701 Y117.137 E35.29337
G1 X123.944 Y124.036 E35.68529
G1 X120.783 Y129.837 E36.01488
G1 X118.980 Y130.445 E36.10981
G1 X117.787 Y130.840 E36.17250
G1 X117.427 Y130.957 E36.19139
G1 X116.336 Y131.164 E36.24679
G1 X116.336 Y131.163 E36.24684
G1 X115.358 Y131.350 E36.29652
G1 X114.852 Y131.444 E36.32219
G1 X113.650 Y131.416 E36.38218
G1 X112.711 Y131.393 E36.42904
G1 X111.670 Y131.044 E36.48381
G1 X110.737 Y130.728 E36.53296
G1 X109.110 Y129.432 E36.63674
G1 X107.905 Y127.658 E36.74373
G1 X107.336 Y126.263 E36.81889
G1 X107.267 Y126.092 E36.82809
G1 X95.201 Y126.391 E37.43025
G1 X94.261 Y126.415 E37.47716
G1 X94.202 Y126.586 E37.48619
G1 X93.872 Y127.529 E37.53603
G1 X93.701 Y128.012 E37.56159
G1 X93.077 Y129.040 E37.62159
G1 X92.585 Y129.845 E37.66866
G1 X91.762 Y130.570 E37.72338
G1 X91.026 Y131.219 E37.77233
G1 X89.088 Y131.981 E37.87623
G1 X86.948 Y132.138 E37.98328
G1 X85.456 Y131.932 E38.05842
G1 X84.347 Y131.778 E38.11428
G1 X82.792 Y131.349 E38.19476
G1 X80.957 Y130.845 E38.28970
G1 X73.408 Y118.486 E39.01221
G1 X80.478 Y114.167 E39.42555
G1 X79.585 Y112.865 E39.50431
G1 X79.464 Y112.690 E39.51493
G1 X78.601 Y111.095 E39.60540
G1 X71.532 Y115.414 E40.01869
G1 X65.818 Y106.064 E40.56538
G1 X63.993 Y103.075 E40.74010
G1 X64.367 Y101.209 E40.83505
G1 X64.622 Y99.975 E40.89791
G1 X64.702 Y99.607 E40.91670
G1 X65.065 Y98.561 E40.97194
G1 X65.397 Y97.613 E41.02205
G1 X65.570 Y97.130 E41.04765
G1 X66.188 Y96.112 E41.10706
G1 X66.678 Y95.305 E41.15416
G1 X67.505 Y94.578 E41.20910
G1 X68.242 Y93.929 E41.25809
G1 X70.180 Y93.167 E41.36198
G1 X72.320 Y93.011 E41.46903
G1 X73.810 Y93.217 E41.54407
G1 X73.993 Y93.243 E41.55330
G1 X80.216 Y81.816 E42.20245
G1 X80.096 Y81.676 E42.21165
G1 X79.446 Y80.922 E42.26131
G1 X79.112 Y80.530 E42.28701
G1 X78.536 Y79.479 E42.34680
G1 X78.085 Y78.651 E42.39384
G1 X77.868 Y77.576 E42.44855
G1 X77.674 Y76.609 E42.49776
G1 X77.984 Y74.553 E42.60149
G1 X78.917 Y72.621 E42.70853
G1 X79.843 Y71.432 E42.78372
G1 X80.529 Y70.550 E42.83946
G1 F2400 E38.83946
G0 F9000 X83.372 Y73.083
;TYPE:WALL-INNER
G1 F2400 E42.83946
G1 F480 X84.346 Y72.124 E42.90766
G1 X84.632 Y71.842 E42.92769
G1 X93.804 Y71.615 E43.38543
G1 X94.029 Y80.618 E43.83473
G1 X95.374 Y80.220 E43.90471
G1 X97.425 Y79.842 E44.00876
G1 X99.588 Y79.671 E44.11701
G1 X99.612 Y79.669 E44.11821
G1 X101.712 Y79.726 E44.22301
G1 X101.740 Y79.727 E44.22441
G1 X103.809 Y80.002 E44.32854
G1 X105.225 Y80.333 E44.40109
G1 X105.002 Y71.337 E44.85004
G1 X114.171 Y71.109 E45.30763
G1 X115.396 Y72.198 E45.38940
G1 X115.491 Y72.283 E45.39576
G1 X116.702 Y73.687 E45.48826
G1 X116.778 Y73.776 E45.49410
G1 X117.163 Y74.480 E45.53413
G1 X117.338 Y74.802 E45.55242
G1 X117.503 Y75.622 E45.59415
G1 X117.379 Y76.449 E45.63587
G1 X116.871 Y77.500 E45.69411
G1 X115.662 Y79.055 E45.79237
G1 X114.331 Y80.367 E45.88562
G1 X124.125 Y96.399 E46.82290
G1 X125.331 Y96.001 E46.88626
G1 X125.899 Y95.814 E46.91609
G1 X127.720 Y95.468 E47.00857
G1 X127.831 Y95.447 E47.01420
G1 X129.002 Y95.475 E47.07264
G1 X129.797 Y95.743 E47.11450
G1 X130.451 Y96.263 E47.15618
G1 X131.106 Y97.226 E47.21429
G1 X131.849 Y99.056 E47.31282
G1 X132.293 Y100.763 E47.40082
G1 X127.904 Y108.822 E47.85864
G1 X119.995 Y104.514 E48.30796
G1 X119.665 Y105.883 E48.37822
G1 X118.950 Y107.892 E48.48461
G1 X118.027 Y109.819 E48.59121
G1 X116.913 Y111.633 E48.69741
G1 X115.608 Y113.329 E48.80417
G1 X114.637 Y114.350 E48.87447
G1 X122.546 Y118.657 E49.32376
G1 X118.159 Y126.711 E49.78132
G1 X116.603 Y127.229 E49.86314
G1 X116.482 Y127.269 E49.86950
G1 X114.659 Y127.615 E49.96207
G1 X114.548 Y127.636 E49.96771
G1 X113.377 Y127.608 E50.02614
G1 X112.583 Y127.341 E50.06794
G1 X111.928 Y126.819 E50.10972
G1 X111.274 Y125.856 E50.16780
G1 X110.530 Y124.025 E50.26640
G1 X110.061 Y122.221 E50.35940
G1 X91.278 Y122.689 E51.29677
G1 X91.022 Y123.928 E51.35989
G1 X90.899 Y124.511 E51.38962
G1 X90.613 Y125.336 E51.43318
G1 X90.288 Y126.267 E51.48238
G1 X90.248 Y126.377 E51.48822
G1 X89.832 Y127.062 E51.52820
G1 X89.641 Y127.375 E51.54650
G1 X89.014 Y127.928 E51.58820
G1 X88.235 Y128.234 E51.62996
G1 X87.070 Y128.319 E51.68824
G1 X85.117 Y128.049 E51.78660
G1 X83.416 Y127.580 E51.87463
G1 X78.632 Y119.748 E52.33250
G1 X86.318 Y115.053 E52.78183
G1 X85.299 Y114.086 E52.85192
G1 X83.928 Y112.475 E52.95746
G1 X83.912 Y112.457 E52.95866
G1 X82.719 Y110.715 E53.06400
G1 X82.703 Y110.692 E53.06539
G1 X81.716 Y108.866 E53.16895
G1 X80.885 Y106.868 E53.27691
G1 X80.477 Y105.497 E53.34827
G1 X72.793 Y110.190 E53.79747
G1 X68.011 Y102.363 E54.25508
G1 X68.090 Y101.968 E54.27517
G1 X68.341 Y100.757 E54.33687
G1 X68.365 Y100.642 E54.34274
G1 X68.978 Y98.885 E54.43557
G1 X69.018 Y98.773 E54.44151
G1 X69.625 Y97.773 E54.49987
G1 X70.251 Y97.222 E54.54148
G1 X71.033 Y96.914 E54.58341
G1 X72.196 Y96.830 E54.64158
G1 X74.148 Y97.099 E54.73989
G1 X74.724 Y97.259 E54.76971
G1 X75.950 Y97.595 E54.83313
G1 X84.934 Y81.099 E55.77026
G1 X83.989 Y80.252 E55.83357
G1 X83.543 Y79.856 E55.86333
G1 X82.331 Y78.449 E55.95597
G1 X82.256 Y78.361 E55.96174
G1 X81.870 Y77.656 E56.00184
G1 X81.696 Y77.336 E56.02002
G1 X81.531 Y76.515 E56.06179
G1 X81.655 Y75.689 E56.10347
G1 X82.163 Y74.638 E56.16170
G1 X83.372 Y73.083 E56.25997
G0 F9000 X88.145 Y92.113
G1 F480 X87.967 Y92.164 E56.26921
G1 X87.163 Y93.008 E56.32736
G1 X86.891 Y94.138 E56.38535
G1 X87.219 Y95.254 E56.44338
G1 X87.931 Y95.930 E56.49237
G1 X88.064 Y96.055 E56.50147
G1 X89.015 Y96.285 E56.55028
G1 X89.193 Y96.328 E56.55942
G1 X90.127 Y96.052 E56.60801
G1 X90.305 Y96.001 E56.61725
G1 X91.108 Y95.157 E56.67537
G1 X91.382 Y94.027 E56.73338
G1 X91.106 Y93.091 E56.78206
G1 X91.055 Y92.913 E56.79130
G1 X90.341 Y92.234 E56.84046
G1 X90.208 Y92.109 E56.84956
G1 X89.257 Y91.880 E56.89837
G1 X89.079 Y91.837 E56.90750
G1 X88.145 Y92.113 E56.95609
G0 F9000 X89.256 Y91.880
G0 X90.340 Y92.234
G0 X91.105 Y93.088
G0 X94.952 Y95.944
G1 F480 X94.315 Y96.904 E57.01357
G1 X93.855 Y97.958 E57.07094
G1 X93.584 Y99.077 E57.12839
G1 X93.513 Y100.226 E57.18582
G1 X93.642 Y101.369 E57.24321
G1 X93.967 Y102.473 E57.30062
G1 X94.448 Y103.444 E57.35468
G1 X95.092 Y104.335 E57.40953
G1 X95.163 Y104.431 E57.41549
G1 X95.911 Y105.142 E57.46697
G1 X95.996 Y105.222 E57.47280
G1 X96.858 Y105.795 E57.52444
G1 X96.952 Y105.859 E57.53011
G1 X97.901 Y106.272 E57.58175
G1 X98.009 Y106.320 E57.58764
G1 X99.129 Y106.590 E57.64512
G1 X100.161 Y106.654 E57.69671
G1 X100.272 Y106.663 E57.70226
G1 X101.309 Y106.547 E57.75432
G1 X101.425 Y106.532 E57.76016
G1 X102.461 Y106.227 E57.81404
G1 X103.554 Y105.698 E57.87462
G1 X104.482 Y105.013 E57.93216
G1 X105.275 Y104.178 E57.98961
G1 X105.911 Y103.219 E58.04702
G1 X106.372 Y102.165 E58.10442
G1 X106.642 Y101.046 E58.16185
G1 X106.713 Y99.897 E58.21928
G1 X106.584 Y98.754 E58.27667
G1 X106.260 Y97.650 E58.33407
G1 X105.777 Y96.679 E58.38817
G1 X105.134 Y95.788 E58.44299
G1 X105.063 Y95.693 E58.44891
G1 X104.315 Y94.980 E58.50046
G1 X104.231 Y94.900 E58.50625
G1 X103.368 Y94.328 E58.55791
G1 X103.274 Y94.264 E58.56358
G1 X102.324 Y93.850 E58.61528
G1 X102.218 Y93.803 E58.62106
G1 X101.098 Y93.533 E58.67854
G1 X100.065 Y93.469 E58.73018
G1 X99.954 Y93.460 E58.73573
G1 X98.917 Y93.576 E58.78779
G1 X98.801 Y93.591 E58.79363
G1 X97.766 Y93.897 E58.84747
G1 X96.673 Y94.426 E58.90805
