;Generated with Cura_SteamEngine 15.01
; Default start code
G28 ; Home extruder
G1 Z15 F100
M107 ; Turn off fan
G90 ; Absolute positioning
M82 ; Extruder in absolute mode
M190 S65
; Activate all used extruder
M104 T0 S200
G92 E0 ; Reset extruder position
; Wait for all used extruders to reach temperature
M109 T0 S200
;Layer count: 100
;LAYER:0
M107
G0 F9000 X119.141 Y76.371 Z0.300
;TYPE:SKIRT
G1 F480 X119.045 Y76.603 E0.01253
G1 X119.012 Y76.853 E0.02511
G1 X119.045 Y77.102 E0.03764
G1 X119.230 Y77.548 E0.06173
G1 X122.981 Y84.054 E0.43640
G1 X123.306 Y84.478 E0.46305
G1 X125.376 Y86.098 E0.59419
G1 X125.005 Y83.502 E0.72502
G1 X124.812 Y83.036 E0.75018
G1 X121.062 Y76.531 E1.12478
G1 X120.748 Y76.121 E1.15055
G1 X120.547 Y75.967 E1.16318
G1 X120.314 Y75.870 E1.17577
G1 X120.064 Y75.837 E1.18835
G1 X119.814 Y75.870 E1.20093
G1 X119.566 Y75.973 E1.21433
G1 X119.284 Y76.186 E1.23196
G1 X119.141 Y76.371 E1.24363
G0 F9000 X118.791 Y76.171
G1 F480 X118.655 Y76.498 E1.26130
G1 X118.609 Y76.853 E1.27916
G1 X118.655 Y77.207 E1.29697
G1 X118.868 Y77.720 E1.32468
G1 X122.650 Y84.280 E1.70245
G1 X123.018 Y84.760 E1.73263
G1 X125.913 Y87.026 E1.91604
G1 X125.394 Y83.394 E2.09909
G1 X125.174 Y82.864 E2.12771
G1 X121.393 Y76.305 E2.50542
G1 X121.033 Y75.835 E2.53496
G1 X120.751 Y75.619 E2.55268
G1 X120.415 Y75.480 E2.57082
G1 X120.064 Y75.434 E2.58848
G1 X119.713 Y75.480 E2.60614
G1 X119.362 Y75.625 E2.62509
G1 X119.001 Y75.897 E2.64764
G1 X118.791 Y76.171 E2.66486
G0 F9000 X118.443 Y75.967
G1 F480 X118.266 Y76.394 E2.68792
G1 X118.206 Y76.853 E2.71102
G1 X118.266 Y77.311 E2.73406
G1 X118.512 Y77.905 E2.76614
G1 X122.307 Y84.487 E3.14519
G1 X122.312 Y84.496 E3.14570
G1 X122.734 Y85.046 E3.18029
G1 X126.170 Y87.735 E3.39797
G1 X120.392 Y91.071 E3.73083
G1 X137.187 Y120.162 E5.40669
G1 X137.498 Y120.121 E5.42234
G1 X138.955 Y120.312 E5.49565
G1 X140.406 Y120.505 E5.56868
G1 X141.761 Y121.065 E5.64183
G1 X143.114 Y121.626 E5.71490
G1 X144.279 Y122.520 E5.78817
G1 X145.438 Y123.411 E5.86110
G1 X146.328 Y124.569 E5.93397
G1 X147.223 Y125.735 E6.00730
G1 X147.782 Y127.086 E6.08024
G1 X148.345 Y128.443 E6.15354
G1 X148.728 Y131.350 E6.29982
G1 X148.345 Y134.255 E6.44601
G1 X147.786 Y135.606 E6.51895
G1 X147.223 Y136.965 E6.59234
G1 X147.032 Y137.214 E6.60800
G1 X147.672 Y138.324 E6.67192
G1 X144.234 Y140.305 E6.86988
G1 X143.745 Y140.588 E6.89807
G1 X143.116 Y141.073 E6.93769
G1 X142.373 Y141.380 E6.97780
G1 X141.997 Y141.597 E6.99946
G1 X138.681 Y143.511 E7.19048
G1 X138.090 Y142.500 E7.24890
G1 X137.503 Y142.578 E7.27844
G1 X136.044 Y142.387 E7.35186
G1 X134.592 Y142.194 E7.42493
G1 X131.886 Y141.073 E7.57106
G1 X129.562 Y139.289 E7.71723
G1 X128.671 Y138.130 E7.79016
G1 X127.776 Y136.964 E7.86350
G1 X127.216 Y135.611 E7.93655
G1 X126.654 Y134.254 E8.00983
G1 X126.464 Y132.803 E8.08284
G1 X126.272 Y131.352 E8.15586
G1 X126.462 Y129.901 E8.22887
G1 X126.654 Y128.444 E8.30219
G1 X127.213 Y127.093 E8.37513
G1 X127.490 Y126.424 E8.41126
G1 X126.924 Y126.350 E8.43973
G1 X73.075 Y126.350 E11.12627
G1 X72.508 Y126.424 E11.15480
G1 X72.782 Y127.086 E11.19054
G1 X73.345 Y128.443 E11.26384
G1 X73.728 Y131.350 E11.41012
G1 X73.345 Y134.255 E11.55631
G1 X72.786 Y135.606 E11.62925
G1 X72.223 Y136.965 E11.70264
G1 X71.331 Y138.125 E11.77565
G1 X70.438 Y139.288 E11.84880
G1 X69.274 Y140.182 E11.92202
G1 X68.115 Y141.073 E11.99496
G1 X66.756 Y141.635 E12.06833
G1 X65.405 Y142.195 E12.14129
G1 X63.949 Y142.386 E12.21455
G1 X62.503 Y142.578 E12.28733
G1 X61.941 Y142.504 E12.31561
G1 X61.360 Y143.533 E12.37456
G1 X57.626 Y141.380 E12.58960
G1 X56.885 Y141.073 E12.62962
G1 X56.251 Y140.586 E12.66950
G1 X55.767 Y140.306 E12.69740
G1 X52.327 Y138.322 E12.89552
G1 X52.967 Y137.213 E12.95940
G1 X52.775 Y136.963 E12.97513
G1 X52.216 Y135.611 E13.04811
G1 X51.654 Y134.254 E13.12139
G1 X51.464 Y132.803 E13.19440
G1 X51.272 Y131.352 E13.26742
G1 X51.462 Y129.901 E13.34043
G1 X51.654 Y128.444 E13.41375
G1 X52.213 Y127.093 E13.48669
G1 X52.776 Y125.734 E13.56008
G1 X53.668 Y124.574 E13.63309
G1 X54.561 Y123.411 E13.70624
G1 X56.886 Y121.626 E13.85248
G1 X59.595 Y120.504 E13.99876
G1 X61.051 Y120.313 E14.07203
G1 X62.497 Y120.121 E14.14480
G1 X62.810 Y120.162 E14.16055
G1 X79.606 Y91.071 E15.83644
G1 X73.829 Y87.735 E16.16926
G1 X77.263 Y85.048 E16.38679
G1 X77.691 Y84.489 E16.42192
G1 X81.474 Y77.937 E16.79937
G1 X81.733 Y77.312 E16.83313
G1 X81.793 Y76.853 E16.85622
G1 X81.733 Y76.394 E16.87931
G1 X81.556 Y75.966 E16.90242
G1 X81.277 Y75.602 E16.92530
G1 X80.893 Y75.307 E16.94946
G1 X80.381 Y75.089 E16.97722
G1 X79.935 Y75.031 E16.99966
G1 X79.476 Y75.091 E17.02276
G1 X79.049 Y75.268 E17.04582
G1 X78.681 Y75.550 E17.06895
G1 X78.269 Y76.088 E17.10275
G1 X74.482 Y82.647 E17.48061
G1 X74.216 Y83.289 E17.51528
G1 X73.600 Y87.602 E17.73264
G1 X64.368 Y82.273 E18.26445
G1 X61.316 Y80.500 E18.44055
G1 X63.526 Y77.078 E18.64378
G1 X64.074 Y76.267 E18.69261
G1 X64.643 Y75.466 E18.74163
G1 X65.228 Y74.680 E18.79051
G1 X65.825 Y73.914 E18.83896
G1 X66.145 Y73.517 E18.86440
G1 X66.761 Y72.780 E18.91233
G1 X67.086 Y72.403 E18.93716
G1 X67.417 Y72.028 E18.96211
G1 X68.072 Y71.311 E19.01056
G1 X68.750 Y70.602 E19.05950
G1 X69.448 Y69.904 E19.10875
G1 X70.157 Y69.226 E19.15770
G1 X70.880 Y68.565 E19.20657
G1 X71.618 Y67.920 E19.25547
G1 X72.371 Y67.292 E19.30439
G1 X73.137 Y66.680 E19.35330
G1 X73.917 Y66.086 E19.40221
G1 X74.712 Y65.509 E19.45122
G1 X75.518 Y64.951 E19.50013
G1 X76.336 Y64.410 E19.54906
G1 X77.167 Y63.889 E19.59799
G1 X78.008 Y63.387 E19.64686
G1 X78.859 Y62.903 E19.69570
G1 X79.725 Y62.437 E19.74476
G1 X80.598 Y61.992 E19.79365
G1 X81.482 Y61.566 E19.84260
G1 X82.374 Y61.162 E19.89146
G1 X83.276 Y60.776 E19.94041
G1 X84.187 Y60.410 E19.98939
G1 X85.105 Y60.066 E20.03830
G1 X86.030 Y59.743 E20.08718
G1 X86.961 Y59.440 E20.13602
G1 X87.903 Y59.157 E20.18509
G1 X88.849 Y58.896 E20.23405
G1 X89.788 Y58.660 E20.28236
G1 X90.272 Y58.546 E20.30717
G1 X90.755 Y58.438 E20.33186
G1 X91.235 Y58.338 E20.35632
G1 X91.712 Y58.242 E20.38059
G1 X92.198 Y58.151 E20.40526
G1 X92.681 Y58.067 E20.42972
G1 X93.164 Y57.987 E20.45415
G1 X93.648 Y57.914 E20.47857
G1 X94.134 Y57.845 E20.50306
G1 X94.620 Y57.782 E20.52751
G1 X95.106 Y57.724 E20.55192
G1 X95.593 Y57.672 E20.57636
G1 X96.080 Y57.625 E20.60077
G1 X96.688 Y57.574 E20.63121
G1 X96.716 Y57.574 E20.63260
G1 X97.066 Y57.548 E20.65011
G1 X98.039 Y57.493 E20.69873
G1 X99.021 Y57.461 E20.74775
G1 X99.999 Y57.450 E20.79655
G1 X100.963 Y57.460 E20.84465
G1 X101.946 Y57.492 E20.89371
G1 X102.918 Y57.547 E20.94228
G1 X103.426 Y57.584 E20.96770
G1 X103.913 Y57.625 E20.99208
G1 X104.404 Y57.672 E21.01669
G1 X104.893 Y57.724 E21.04122
G1 X105.379 Y57.782 E21.06564
G1 X105.865 Y57.845 E21.09009
G1 X106.351 Y57.914 E21.11458
G1 X106.835 Y57.987 E21.13900
G1 X107.318 Y58.067 E21.16342
G1 X107.801 Y58.151 E21.18788
G1 X108.287 Y58.242 E21.21255
G1 X108.764 Y58.338 E21.23682
G1 X109.253 Y58.440 E21.26175
G1 X110.202 Y58.658 E21.31033
G1 X111.150 Y58.896 E21.35909
G1 X112.096 Y59.157 E21.40805
G1 X113.038 Y59.440 E21.45712
G1 X113.969 Y59.743 E21.50597
G1 X114.894 Y60.066 E21.55485
G1 X115.812 Y60.410 E21.60376
G1 X116.723 Y60.776 E21.65274
G1 X117.625 Y61.162 E21.70169
G1 X118.517 Y61.566 E21.75054
G1 X119.401 Y61.992 E21.79950
G1 X120.274 Y62.437 E21.84838
G1 X121.140 Y62.903 E21.89744
G1 X121.991 Y63.387 E21.94629
G1 X122.832 Y63.889 E21.99515
G1 X123.663 Y64.410 E22.04408
G1 X124.481 Y64.951 E22.09301
G1 X125.287 Y65.509 E22.14192
G1 X126.082 Y66.086 E22.19093
G1 X126.862 Y66.680 E22.23984
G1 X127.628 Y67.292 E22.28876
G1 X128.381 Y67.920 E22.33768
G1 X129.119 Y68.565 E22.38657
G1 X129.842 Y69.226 E22.43545
G1 X130.551 Y69.904 E22.48439
G1 X131.241 Y70.594 E22.53307
G1 X131.918 Y71.302 E22.58195
G1 X132.572 Y72.017 E22.63029
G1 X132.905 Y72.393 E22.65535
G1 X133.227 Y72.765 E22.67989
G1 X133.548 Y73.145 E22.70471
G1 X134.163 Y73.899 E22.75325
G1 X134.765 Y74.672 E22.80213
G1 X135.350 Y75.458 E22.85102
G1 X135.914 Y76.253 E22.89965
G1 X136.201 Y76.672 E22.92498
G1 X136.728 Y77.471 E22.97274
G1 X138.677 Y80.514 E23.15302
G1 X126.399 Y87.603 E23.86034
G1 X125.783 Y83.289 E24.07775
G1 X125.530 Y82.679 E24.11070
G1 X121.734 Y76.095 E24.48986
G1 X121.728 Y76.084 E24.49049
G1 X121.320 Y75.552 E24.52393
G1 X120.950 Y75.268 E24.54720
G1 X120.523 Y75.091 E24.57027
G1 X120.064 Y75.031 E24.59336
G1 X119.605 Y75.091 E24.61645
G1 X119.163 Y75.274 E24.64032
G1 X118.716 Y75.611 E24.66825
G1 X118.443 Y75.967 E24.69063
G0 F9000 X126.320 Y65.765
G1 F480 X127.108 Y66.365 E24.74004
G1 X127.881 Y66.982 E24.78939
G1 X128.641 Y67.616 E24.83877
G1 X129.385 Y68.267 E24.88809
G1 X130.115 Y68.934 E24.93742
G1 X130.831 Y69.618 E24.98682
G1 X131.527 Y70.314 E25.03593
G1 X132.211 Y71.029 E25.08529
G1 X132.870 Y71.749 E25.13399
G1 X133.206 Y72.129 E25.15930
G1 X133.531 Y72.505 E25.18409
G1 X133.856 Y72.890 E25.20923
G1 X134.476 Y73.650 E25.25816
G1 X135.083 Y74.430 E25.30747
G1 X135.674 Y75.223 E25.35681
G1 X136.243 Y76.024 E25.40583
G1 X136.533 Y76.449 E25.43150
G1 X137.063 Y77.253 E25.47954
G1 X139.239 Y80.651 E25.68085
G1 X126.087 Y88.245 E26.43853
G1 X120.939 Y91.218 E26.73512
G1 X137.401 Y119.731 E28.37770
G1 X137.498 Y119.718 E28.38259
G1 X139.008 Y119.916 E28.45856
G1 X140.511 Y120.115 E28.53420
G1 X141.914 Y120.696 E28.60996
G1 X143.316 Y121.277 E28.68568
G1 X144.523 Y122.203 E28.76158
G1 X145.724 Y123.126 E28.83714
G1 X146.645 Y124.325 E28.91257
G1 X147.573 Y125.534 E28.98861
G1 X148.152 Y126.933 E29.06415
G1 X148.734 Y128.339 E29.14007
G1 X149.131 Y131.350 E29.29159
G1 X148.734 Y134.359 E29.44301
G1 X148.155 Y135.759 E29.51859
G1 X147.572 Y137.166 E29.59457
G1 X147.512 Y137.244 E29.59948
G1 X148.219 Y138.470 E29.67009
G1 X144.434 Y140.651 E29.88803
G1 X143.971 Y140.919 E29.91472
G1 X143.318 Y141.422 E29.95584
G1 X142.551 Y141.739 E29.99725
G1 X142.200 Y141.941 E30.01745
G1 X142.200 Y141.942 E30.01750
G1 X138.537 Y144.056 E30.22850
G1 X137.879 Y142.931 E30.29352
G1 X137.503 Y142.981 E30.31245
G1 X135.992 Y142.783 E30.38848
G1 X134.488 Y142.584 E30.46416
G1 X131.684 Y141.423 E30.61557
G1 X129.276 Y139.574 E30.76704
G1 X128.354 Y138.374 E30.84254
G1 X127.426 Y137.165 E30.91858
G1 X126.846 Y135.764 E30.99423
G1 X126.264 Y134.358 E31.07014
G1 X126.067 Y132.855 E31.14577
G1 X125.869 Y131.352 E31.22140
G1 X126.066 Y129.849 E31.29703
G1 X126.265 Y128.340 E31.37296
G1 X126.844 Y126.940 E31.44855
G1 X126.922 Y126.753 E31.45866
G1 X126.902 Y126.750 E31.45967
G1 X73.097 Y126.750 E34.14401
G1 X73.077 Y126.753 E34.14502
G1 X73.152 Y126.933 E34.15475
G1 X73.734 Y128.339 E34.23066
G1 X74.131 Y131.350 E34.38218
G1 X73.734 Y134.359 E34.53360
G1 X73.155 Y135.759 E34.60919
G1 X72.572 Y137.167 E34.68522
G1 X71.648 Y138.369 E34.76086
G1 X70.723 Y139.574 E34.83664
G1 X69.518 Y140.499 E34.91243
G1 X68.316 Y141.422 E34.98804
G1 X66.909 Y142.005 E35.06402
G1 X65.509 Y142.585 E35.13963
G1 X64.006 Y142.781 E35.21525
G1 X64.006 Y142.782 E35.21530
G1 X62.503 Y142.981 E35.29094
G1 X62.157 Y142.936 E35.30834
G1 X61.509 Y144.081 E35.37398
G1 X57.442 Y141.736 E35.60820
G1 X56.683 Y141.422 E35.64918
G1 X56.034 Y140.923 E35.69002
G1 X55.570 Y140.655 E35.71675
G1 X51.781 Y138.469 E35.93499
G1 X52.487 Y137.244 E36.00553
G1 X52.426 Y137.165 E36.01051
G1 X51.846 Y135.764 E36.08616
G1 X51.264 Y134.358 E36.16208
G1 X51.067 Y132.855 E36.23770
G1 X50.869 Y131.352 E36.31333
G1 X51.066 Y129.849 E36.38896
G1 X51.265 Y128.340 E36.46490
G1 X51.844 Y126.940 E36.54048
G1 X52.427 Y125.532 E36.61651
G1 X53.351 Y124.330 E36.69215
G1 X54.276 Y123.125 E36.76794
G1 X56.684 Y121.276 E36.91940
G1 X59.490 Y120.114 E37.07092
G1 X60.994 Y119.918 E37.14659
G1 X60.994 Y119.917 E37.14664
G1 X62.497 Y119.718 E37.22228
G1 X62.598 Y119.731 E37.22736
G1 X79.060 Y91.217 E38.86999
G1 X73.912 Y88.245 E39.16655
G1 X64.168 Y82.619 E39.72789
G1 X60.753 Y80.635 E39.92494
G1 X63.192 Y76.857 E40.14929
G1 X63.746 Y76.039 E40.19857
G1 X64.319 Y75.231 E40.24799
G1 X64.910 Y74.438 E40.29734
G1 X65.511 Y73.665 E40.34619
G1 X65.836 Y73.263 E40.37198
G1 X66.456 Y72.521 E40.42022
G1 X66.785 Y72.139 E40.44537
G1 X67.119 Y71.761 E40.47053
G1 X67.779 Y71.038 E40.51937
G1 X68.464 Y70.322 E40.56881
G1 X69.168 Y69.618 E40.61848
G1 X69.884 Y68.934 E40.66788
G1 X70.614 Y68.267 E40.71722
G1 X71.358 Y67.616 E40.76654
G1 X72.118 Y66.982 E40.81591
G1 X72.891 Y66.365 E40.86526
G1 X73.679 Y65.765 E40.91467
G1 X74.480 Y65.182 E40.96410
G1 X75.294 Y64.619 E41.01348
G1 X76.120 Y64.074 E41.06285
G1 X76.958 Y63.548 E41.11221
G1 X77.807 Y63.041 E41.16154
G1 X78.666 Y62.553 E41.21083
G1 X79.539 Y62.083 E41.26030
G1 X80.421 Y61.634 E41.30967
G1 X81.312 Y61.204 E41.35903
G1 X82.213 Y60.796 E41.40838
G1 X83.122 Y60.406 E41.45772
G1 X84.042 Y60.037 E41.50718
G1 X84.969 Y59.690 E41.55656
G1 X85.902 Y59.364 E41.60587
G1 X86.842 Y59.058 E41.65519
G1 X87.792 Y58.772 E41.70468
G1 X88.747 Y58.510 E41.75409
G1 X89.693 Y58.271 E41.80277
G1 X90.183 Y58.156 E41.82788
G1 X90.671 Y58.047 E41.85282
G1 X91.155 Y57.946 E41.87749
G1 X91.636 Y57.850 E41.90196
G1 X92.127 Y57.757 E41.92689
G1 X92.614 Y57.673 E41.95155
G1 X93.101 Y57.592 E41.97618
G1 X93.590 Y57.518 E42.00085
G1 X94.080 Y57.448 E42.02555
G1 X94.570 Y57.385 E42.05019
G1 X95.061 Y57.327 E42.07486
G1 X95.553 Y57.274 E42.09955
G1 X96.044 Y57.227 E42.12416
G1 X96.671 Y57.174 E42.15555
G1 X96.701 Y57.174 E42.15705
G1 X97.040 Y57.149 E42.17401
G1 X98.022 Y57.093 E42.22308
G1 X99.012 Y57.061 E42.27249
G1 X99.998 Y57.050 E42.32169
G1 X100.972 Y57.060 E42.37028
G1 X101.963 Y57.092 E42.41975
G1 X102.944 Y57.147 E42.46877
G1 X103.457 Y57.185 E42.49443
G1 X103.949 Y57.227 E42.51907
G1 X104.445 Y57.274 E42.54393
G1 X104.938 Y57.327 E42.56866
G1 X105.429 Y57.385 E42.59333
G1 X105.919 Y57.448 E42.61798
G1 X106.409 Y57.518 E42.64267
G1 X106.898 Y57.592 E42.66735
G1 X107.385 Y57.673 E42.69198
G1 X107.872 Y57.757 E42.71663
G1 X108.363 Y57.850 E42.74156
G1 X108.844 Y57.946 E42.76603
G1 X109.338 Y58.049 E42.79121
G1 X110.296 Y58.269 E42.84025
G1 X111.252 Y58.510 E42.88944
G1 X112.207 Y58.772 E42.93884
G1 X113.157 Y59.058 E42.98834
G1 X114.097 Y59.364 E43.03766
G1 X115.030 Y59.690 E43.08696
G1 X115.957 Y60.037 E43.13635
G1 X116.877 Y60.406 E43.18580
G1 X117.786 Y60.796 E43.23515
G1 X118.687 Y61.204 E43.28449
G1 X119.578 Y61.634 E43.33385
G1 X120.460 Y62.083 E43.38323
G1 X121.333 Y62.553 E43.43269
G1 X122.192 Y63.041 E43.48198
G1 X123.041 Y63.548 E43.53132
G1 X123.879 Y64.074 E43.58068
G1 X124.705 Y64.619 E43.63005
G1 X125.519 Y65.182 E43.67943
G1 X126.320 Y65.765 E43.72885
G0 F9000 X126.559 Y65.444
G1 F480 X127.354 Y66.049 E43.77869
G1 X128.134 Y66.672 E43.82850
G1 X128.901 Y67.312 E43.87834
G1 X129.652 Y67.968 E43.92808
G1 X130.388 Y68.641 E43.97784
G1 X131.111 Y69.332 E44.02774
G1 X131.813 Y70.034 E44.07727
G1 X132.503 Y70.756 E44.12709
G1 X133.167 Y71.482 E44.17618
G1 X133.507 Y71.866 E44.20176
G1 X133.835 Y72.246 E44.22681
G1 X134.163 Y72.634 E44.25215
G1 X134.789 Y73.400 E44.30151
G1 X135.402 Y74.188 E44.35132
G1 X135.997 Y74.987 E44.40102
G1 X136.571 Y75.795 E44.45047
G1 X136.865 Y76.226 E44.47649
G1 X137.399 Y77.035 E44.52486
G1 X139.802 Y80.788 E44.74719
G1 X125.775 Y88.887 E45.55527
G1 X121.485 Y91.364 E45.80241
G1 X137.632 Y119.332 E47.41359
G1 X139.060 Y119.519 E47.48544
G1 X140.615 Y119.726 E47.56371
G1 X142.067 Y120.326 E47.64209
G1 X143.518 Y120.927 E47.72044
G1 X144.767 Y121.886 E47.79901
G1 X146.009 Y122.841 E47.87717
G1 X146.962 Y124.081 E47.95519
G1 X147.922 Y125.332 E48.03386
G1 X148.521 Y126.780 E48.11204
G1 X149.124 Y128.234 E48.19057
G1 X149.535 Y131.350 E48.34738
